X: 78
T: Dancing In the Sun
C: G. F.
N: Copyright, 1916, by The Cable Company.
Q: "Allegro moderato."
%R: air, waltz
B: "The Everyday Song Book", 1927
F: http://www.library.pitt.edu/happybirthday/pdf/The_Everyday_Song_Book.pdf
Z: 2017 John Chambers <jc:trillian.mit.edu>
M: 3/4	% The book has 4/4
L: 1/4
K: F
% - - - - - - - - - - - - - - - - - - - - - - - - - - - - -
[| C A A | A G A | B d d | G3 | C G G |
w: 1.~Fid-dle and bag-pipe so mer-ri-ly sound!   Til-lie and
w: 2.~Old Moth-er Tab-by-skin comes out to see;  Rov-er runs
%
G F G | A c c | F3 | C A A | A G F |
w: Mil-lie go danc-ing a-round,   Light-ly they're skip-ping and
w: aft-er, a-bark-ing with glee;  Rob-in sings cheer-i-ly,
%
D B B | B A G | E c c | c d e | f2 F | F3 |]
w: gai-ly they're trip-ping, A-danc-ing and pranc-ing to mu-sic's sound.
w: Mid-ges dance air-i-ly,   Ev-'ry-thing's glad in the sun-shine free.
% - - - - - - - - - - - - - - - - - - - - - - - - - - - - -

%%sep 1 1 500
%%sep 1 1 500

